X: 53
T:V. Arre borriquito
M:4/4
L:1/8
Q:300
C:Trad.
R:Villancico
K:C
EF | G2 G4 EF | G2G4 GA| B2A2G2F2 | E2 G4 EF | G2 G4 EF | G2G4 GA | B2 G
2 A2 B2 | c2 c4 cc | B2A4 BA | A2G4 AG | G2F2 G2F2 | F2E4  cc | B2A4 BA
| A2G4 AA | G2F2E2D2 | C2-C4 Z2 || 
K:Dmin
F2F2F2 A2| F4 F4 | F2G2A2B2 | c4 c4 | d2 c2B2A2| G2F2E2D2 | C2 c4-c2| A4
 F4 | F2F2F2A2 | F4 F4 | F2G2A2B2 | c8 | 
d2 c2 B2 A2 | G2 F2 E2 D2 | C4 c2-c2 | F6 Z2 ||

